icons_vscode/livescript.svg

<svg viewBox="0 0 27.98 28" xmlns="http://www.w3.org/2000/svg"><path d="m3.49.01 3.48-.01v19.75l1.78-1.76v-16.24h1.74v14.49l1.75-1.75v-12.74h1.75v10.98l1.73-1.77v-9.21h1.73v7.47l1.78-1.76v-5.71h1.73v3.97l1.77-1.74v-2.23h1.74v1.73h1.73v1.79h-2.3l-1.73 1.72h4.03v1.73h-5.77l-1.74 1.78h7.51v1.73h-9.25l-1.76 1.78h11.01v1.73h-12.76l-1.74 1.76h14.5v1.75h-16.23l-1.74 1.73h19.74l.01 3.51h-21.01v3.51h-3.48v-3.51h-3.49v-3.51h3.49v-20.98z" fill="#0277bd"/></svg>

<svg xmlns="http://www.w3.org/2000/svg" viewBox="0 0 27.98 28"><path fill="#0277bd" d="M3.49.01 6.97 0v19.75l1.78-1.76V1.75h1.74v14.49l1.75-1.75V1.75h1.75v10.98l1.73-1.77V1.75h1.73v7.47l1.78-1.76V1.75h1.73v3.97l1.77-1.74V1.75h1.74v1.73h1.73v1.79h-2.3l-1.73 1.72h4.03v1.73h-5.77l-1.74 1.78h7.51v1.73h-9.25l-1.76 1.78H26.2v1.73H13.44L11.7 17.5h14.5v1.75H9.97l-1.74 1.73h19.74l.01 3.51H6.97V28H3.49v-3.51H0v-3.51h3.49V0z"/></svg>
